X:120
T:General Monck's March
T:The Monks' March
Z:Jack Campin, http://www.campin.me.uk/
F:Jack Campin's Nine-Note Tunebook
% last edit 03-02-2013
M:2/4
L:1/8
Q:1/4=120
K:D
D2 DF|E2 EG|FA  dB|A2 AG|FA  FD|EG EC|D>E FE|D4:|
A2 AG|Fz z2|G>A GF|Ez z2|A>B AG|F3  F|GA  BG|E4 |
D2 DF|E2 EG|FA  dB|A2 AG|FA  FD|EG EC|D>E FE|D4|]

